X: 268
T: The New Apron
B: O'Neill's 268
N: "With expression"
N: "Collected by J.O'Neill"
Z: 1997 by John Chambers <jc@trillian.mit.edu>
M: 3/4
L: 1/8
K:G
(D>E) \
|G3 ABA|MG2 MD2 ME2|F3 AGF|F2 E2 DE \
|G2 dc BA|MG2 MD2 ME2|AGF GA Bc|d4 EF|
|G2 dc BA|MG2 MD2 ME2|F2- FG/A/ GF|F2 E2 GE \
|D3 B, DE/F/|D4 Bc|d3c BA|G4||
||Bc \
|d2 cB AG|c4 cB|BA2 FG AB|c4 Bc \
|d2 cB AG|cd/e/ d2 ze|d2 cB .cd/e/|d4 .gf/e/|
|d2 B2 GA/B/|c3 d e2|E2 AB cA|G2 F2 GE \
|D2 CB, CD/E/|D4 Bc|d3 c BA|G4||
